X:37
T:Anglais efter Harberg
T:(SvL Skåne nr. 37)
R:Anglais
B:Svenska Låtar Skåne
Z:Patrik Månsson 2009-01-08
O:Emislöv, Skåne
S:efter Otto Bernhard Harberg
M:C
L:1/8
K:G
|: (BG)DD (DG)Bd | {d}(cBc)A (fd)(af) | (gd)BG (DG)Bd | cAFD G2 z2 :|
|: (d2 e)d ^cdef | g z f z e z d z | d2 (^cd) (edBG) | (FG)AB G2 z2 :|

